Newaita-dark/actions/24/zoom-2-to-1.svg

<svg height="24" viewBox="0 0 24 24" width="24" xmlns="http://www.w3.org/2000/svg"><g fill="#e0e0e0"><path d="m10.417969 15.089844c.117187-.003906.226562-.042969.316406-.117188l2.976563-2.480468c.246093-.207032.246093-.585938 0-.792969l-2.976563-2.480469c-.335937-.277344-.84375-.039062-.84375.394531v4.964844c0 .289063.238281.519531.527344.511719zm0 0"/><path d="m6.574219 6.636719h.742187c.34375 0 .621094.222656.621094.496093v9.921876c0 .277343-.277344.496093-.621094.496093h-.742187c-.34375 0-.621094-.21875-.621094-.496093v-9.921876c0-.273437.277344-.496093.621094-.496093zm0 0"/><path d="m16.496094 9.117188h.746094c.339843 0 .617187.222656.617187.496093v4.960938c0 .277343-.277344.496093-.617187.496093h-.746094c-.34375 0-.621094-.21875-.621094-.496093v-4.960938c0-.273437.277344-.496093.621094-.496093zm0 0"/><path d="m3.96875 2.171875c-1.097656 0-1.984375.886719-1.984375 1.984375v3.96875h1.984375v-2.976562c0-.550782.441406-.992188.992188-.992188h2.976562v-1.984375zm11.90625 0v1.984375h2.976562c.550782 0 .992188.441406.992188.992188v2.976562h1.988281v-3.96875c0-1.097656-.886719-1.984375-1.988281-1.984375zm-13.890625 13.890625v3.96875c0 1.101562.886719 1.988281 1.984375 1.988281h3.96875v-1.988281h-2.976562c-.550782 0-.992188-.441406-.992188-.992188v-2.976562zm17.859375 0v2.976562c0 .550782-.441406.992188-.992188.992188h-2.976562v1.988281h3.96875c1.101562 0 1.988281-.886719 1.988281-1.988281v-3.96875zm0 0"/></g></svg>

<svg xmlns="http://www.w3.org/2000/svg" xmlns:xlink="http://www.w3.org/1999/xlink" width="24px" height="24px" viewBox="0 0 24 24" version="1.1">
<g id="surface1">
     <defs>
  <style id="current-color-scheme" type="text/css">
   .ColorScheme-Text { color:#eeeeee; } .ColorScheme-Highlight { color:#424242; }
  </style>
 </defs>
<path style="fill:currentColor" class="ColorScheme-Text" d="M 10.417969 15.089844 C 10.535156 15.085938 10.644531 15.046875 10.734375 14.972656 L 13.710938 12.492188 C 13.957031 12.285156 13.957031 11.90625 13.710938 11.699219 L 10.734375 9.21875 C 10.398438 8.941406 9.890625 9.179688 9.890625 9.613281 L 9.890625 14.578125 C 9.890625 14.867188 10.128906 15.097656 10.417969 15.089844 Z M 10.417969 15.089844 "/>
     <defs>
  <style id="current-color-scheme" type="text/css">
   .ColorScheme-Text { color:#eeeeee; } .ColorScheme-Highlight { color:#424242; }
  </style>
 </defs>
<path style="fill:currentColor" class="ColorScheme-Text" d="M 6.574219 6.636719 L 7.316406 6.636719 C 7.660156 6.636719 7.9375 6.859375 7.9375 7.132812 L 7.9375 17.054688 C 7.9375 17.332031 7.660156 17.550781 7.316406 17.550781 L 6.574219 17.550781 C 6.230469 17.550781 5.953125 17.332031 5.953125 17.054688 L 5.953125 7.132812 C 5.953125 6.859375 6.230469 6.636719 6.574219 6.636719 Z M 6.574219 6.636719 "/>
     <defs>
  <style id="current-color-scheme" type="text/css">
   .ColorScheme-Text { color:#eeeeee; } .ColorScheme-Highlight { color:#424242; }
  </style>
 </defs>
<path style="fill:currentColor" class="ColorScheme-Text" d="M 16.496094 9.117188 L 17.242188 9.117188 C 17.582031 9.117188 17.859375 9.339844 17.859375 9.613281 L 17.859375 14.574219 C 17.859375 14.851562 17.582031 15.070312 17.242188 15.070312 L 16.496094 15.070312 C 16.152344 15.070312 15.875 14.851562 15.875 14.574219 L 15.875 9.613281 C 15.875 9.339844 16.152344 9.117188 16.496094 9.117188 Z M 16.496094 9.117188 "/>
     <defs>
  <style id="current-color-scheme" type="text/css">
   .ColorScheme-Text { color:#eeeeee; } .ColorScheme-Highlight { color:#424242; }
  </style>
 </defs>
<path style="fill:currentColor" class="ColorScheme-Text" d="M 3.96875 2.171875 C 2.871094 2.171875 1.984375 3.058594 1.984375 4.15625 L 1.984375 8.125 L 3.96875 8.125 L 3.96875 5.148438 C 3.96875 4.597656 4.410156 4.15625 4.960938 4.15625 L 7.9375 4.15625 L 7.9375 2.171875 Z M 15.875 2.171875 L 15.875 4.15625 L 18.851562 4.15625 C 19.402344 4.15625 19.84375 4.597656 19.84375 5.148438 L 19.84375 8.125 L 21.832031 8.125 L 21.832031 4.15625 C 21.832031 3.058594 20.945312 2.171875 19.84375 2.171875 Z M 1.984375 16.0625 L 1.984375 20.03125 C 1.984375 21.132812 2.871094 22.019531 3.96875 22.019531 L 7.9375 22.019531 L 7.9375 20.03125 L 4.960938 20.03125 C 4.410156 20.03125 3.96875 19.589844 3.96875 19.039062 L 3.96875 16.0625 Z M 19.84375 16.0625 L 19.84375 19.039062 C 19.84375 19.589844 19.402344 20.03125 18.851562 20.03125 L 15.875 20.03125 L 15.875 22.019531 L 19.84375 22.019531 C 20.945312 22.019531 21.832031 21.132812 21.832031 20.03125 L 21.832031 16.0625 Z M 19.84375 16.0625 "/>
</g>
</svg>
